X:3202
L:1/8
Q:1/4=120
M:2/2
K:A
 E | AGAE CEAc | e^dec A2 (ef/g/) | aefe dcBA | GEAE BEcE | AGAE CEAc | e^dec A2 (ef/g/) | 
 agba gfe^d | e2 e2 e3 :: B | ee/e/ ee gebg | ee/e/ ee aec'a | baga bc'd'c' | bagf edcB | 
 AGAE CEAc | e^dec A2 (ef/g/) | abc'a fdBG | A2 A2 A3 :|

